X: 13793
T: Fosgail An Dorus
R: jig
M: 6/8
K: Amixolydian
GAA ABB|Bdd dee|GAA ABB|dBA A2B|
GAA ABB|Bdd dee|agf g2 e|d2 e dBA:|
efe edB|d2 e dBA|efe edB|dBA A2 d|
efe edB|d2 e g3|agf g2 e|d2 e dBA:|

